X:41
T:Flowers of Edinborough. JBs.041
S:Jas.Blackshaw MS, 1837, N.Shropshire
Z:Tony Weatherall 2006
M:4/4
L:1/8
Q:1/2=100
A:North Shropshire
R:Reel
K:G
â€œ*â€FE|D2EF G2GA|BGBd cBAG|GFGE DEFG|AFdF E2FE|!
D2G2G2GA|BGBd g2fe|dcBA GFGA|B2G2G2:|!
|:(3def|gfga gbag|fefg fagf|edef gfed|B2e2e2fg|!
cBAG d2cB|edefg2fe|dcBA GFGA|B2G2G2:|

